imgs/instagram.svg

<svg width="20" height="20" viewBox="0 0 20 20" fill="none" xmlns="http://www.w3.org/2000/svg">
<path d="M9.99934 6.14746C8.97737 6.14746 7.99726 6.55344 7.27462 7.27608C6.55198 7.99872 6.146 8.97883 6.146 10.0008C6.146 11.0228 6.55198 12.0029 7.27462 12.7255C7.99726 13.4482 8.97737 13.8541 9.99934 13.8541C11.0213 13.8541 12.0015 13.4482 12.7241 12.7255C13.4467 12.0029 13.8527 11.0228 13.8527 10.0008C13.8527 8.97883 13.4467 7.99872 12.7241 7.27608C12.0015 6.55344 11.0213 6.14746 9.99934 6.14746ZM9.99934 12.5033C9.33541 12.5033 8.69868 12.2396 8.22921 11.7701C7.75975 11.3006 7.496 10.6639 7.496 9.99996C7.496 9.33604 7.75975 8.6993 8.22921 8.22984C8.69868 7.76037 9.33541 7.49663 9.99934 7.49663C10.6633 7.49663 11.3 7.76037 11.7695 8.22984C12.239 8.6993 12.5027 9.33604 12.5027 9.99996C12.5027 10.6639 12.239 11.3006 11.7695 11.7701C11.3 12.2396 10.6633 12.5033 9.99934 12.5033Z" fill="#F67ACB"/>
<path d="M14.0052 6.90421C14.5013 6.90421 14.9035 6.50201 14.9035 6.00588C14.9035 5.50974 14.5013 5.10754 14.0052 5.10754C13.5091 5.10754 13.1069 5.50974 13.1069 6.00588C13.1069 6.50201 13.5091 6.90421 14.0052 6.90421Z" fill="#F67ACB"/>
<path d="M17.1106 5.09248C16.9177 4.5943 16.6229 4.14189 16.2451 3.7642C15.8673 3.38651 15.4147 3.09188 14.9165 2.89915C14.3334 2.68028 13.7175 2.56193 13.0948 2.54915C12.2923 2.51415 12.0381 2.50415 10.0031 2.50415C7.96813 2.50415 7.7073 2.50415 6.91147 2.54915C6.28929 2.56128 5.67376 2.67965 5.09146 2.89915C4.59308 3.09165 4.14043 3.38621 3.76257 3.76392C3.38471 4.14164 3.08999 4.59417 2.89729 5.09248C2.67839 5.67549 2.56031 6.29151 2.54814 6.91415C2.5123 7.71582 2.50146 7.96998 2.50146 10.0058C2.50146 12.0408 2.50147 12.3 2.54814 13.0975C2.56064 13.7208 2.67813 14.3358 2.89729 14.92C3.09053 15.4181 3.38554 15.8705 3.76349 16.2481C4.14144 16.6258 4.59402 16.9205 5.0923 17.1133C5.6735 17.341 6.28928 17.4678 6.91313 17.4883C7.71564 17.5233 7.9698 17.5342 10.0048 17.5342C12.0398 17.5342 12.3006 17.5342 13.0965 17.4883C13.7191 17.4757 14.335 17.3576 14.9181 17.1392C15.4163 16.946 15.8687 16.6511 16.2465 16.2733C16.6242 15.8955 16.9191 15.4431 17.1123 14.945C17.3315 14.3617 17.449 13.7467 17.4615 13.1233C17.4973 12.3217 17.5081 12.0675 17.5081 10.0317C17.5081 7.99582 17.5081 7.73748 17.4615 6.93998C17.4518 6.30854 17.3331 5.68352 17.1106 5.09248ZM16.0956 13.0358C16.0903 13.5161 16.0026 13.9918 15.8365 14.4425C15.7113 14.7665 15.5197 15.0608 15.274 15.3064C15.0283 15.5519 14.7339 15.7434 14.4098 15.8683C13.9642 16.0337 13.4934 16.1214 13.0181 16.1275C12.2265 16.1642 12.0031 16.1733 9.97313 16.1733C7.94146 16.1733 7.73396 16.1733 6.92729 16.1275C6.45223 16.1217 5.98174 16.034 5.53647 15.8683C5.21121 15.7441 4.91563 15.5531 4.66887 15.3075C4.42211 15.0618 4.22965 14.7672 4.10396 14.4425C3.94016 13.9967 3.85256 13.5265 3.84479 13.0517C3.80896 12.26 3.80063 12.0367 3.80063 10.0067C3.80063 7.97582 3.80063 7.76832 3.84479 6.96082C3.85019 6.48084 3.93784 6.00533 4.10396 5.55498C4.35813 4.89748 4.87897 4.37998 5.53647 4.12832C5.98196 3.96343 6.45231 3.87579 6.92729 3.86915C7.71979 3.83332 7.94229 3.82332 9.97313 3.82332C12.004 3.82332 12.2123 3.82332 13.0181 3.86915C13.4935 3.87487 13.9643 3.96254 14.4098 4.12832C14.7339 4.25354 15.0283 4.44515 15.274 4.69084C15.5196 4.93653 15.7113 5.23088 15.8365 5.55498C16.0003 6.00078 16.0879 6.47095 16.0956 6.94582C16.1315 7.73832 16.1406 7.96082 16.1406 9.99165C16.1406 12.0217 16.1406 12.24 16.1048 13.0367L16.0956 13.0358Z" fill="#F67ACB"/>
</svg>

<svg xmlns="http://www.w3.org/2000/svg" width="20" height="20" fill="none"><path fill="#F67ACB" d="M10 6.147a3.853 3.853 0 1 0 0 7.707 3.853 3.853 0 0 0 0-7.707m0 6.356a2.503 2.503 0 1 1 0-5.006 2.503 2.503 0 0 1 0 5.006M14.005 6.904a.898.898 0 1 0 0-1.796.898.898 0 0 0 0 1.796"/><path fill="#F67ACB" d="M17.11 5.092A3.84 3.84 0 0 0 14.918 2.9a5.5 5.5 0 0 0-1.822-.35c-.803-.035-1.057-.045-3.092-.045s-2.296 0-3.092.045a5.5 5.5 0 0 0-1.82.35 3.83 3.83 0 0 0-2.194 2.193 5.5 5.5 0 0 0-.349 1.822c-.036.802-.047 1.056-.047 3.092s0 2.294.047 3.092c.013.623.13 1.238.35 1.822a3.84 3.84 0 0 0 2.194 2.193 5.5 5.5 0 0 0 1.821.375c.803.035 1.057.046 3.092.046s2.296 0 3.092-.046a5.5 5.5 0 0 0 1.821-.349 3.84 3.84 0 0 0 2.194-2.194c.22-.583.337-1.198.35-1.822.035-.801.046-1.055.046-3.091s0-2.295-.046-3.092a5.5 5.5 0 0 0-.351-1.848m-1.014 7.944c-.006.48-.093.956-.26 1.407a2.5 2.5 0 0 1-1.426 1.425 4.2 4.2 0 0 1-1.392.26c-.792.036-1.015.045-3.045.045-2.032 0-2.239 0-3.046-.045a4.1 4.1 0 0 1-1.39-.26 2.49 2.49 0 0 1-1.433-1.425 4.2 4.2 0 0 1-.26-1.391c-.035-.792-.043-1.015-.043-3.045s0-2.239.044-3.046c.005-.48.093-.956.259-1.406a2.49 2.49 0 0 1 1.432-1.427 4.2 4.2 0 0 1 1.391-.259c.793-.036 1.015-.046 3.046-.046s2.24 0 3.045.046c.475.006.946.094 1.392.26a2.5 2.5 0 0 1 1.426 1.426c.164.446.252.916.26 1.39.035.793.045 1.016.045 3.047 0 2.03 0 2.248-.036 3.045z"/></svg>
